X:415
T:The Mermaid
C:Newfoundland
M:2/4
L:1/8
K:D
|Ad | "D"f2 fe | d3 d | "G"ed cB |"D" A3 A |"G" Bc d2| "A7"cd ec |
"D"d3 A |d2 de | f2 fe | d3 d | "G" ed cB | "D"A3 A | "G"Bcd2 | "A7" cd ec |
"D" d3 A |d2 FG | "D"A3 A | B2 A2 |d4- | d2 de | f2 ff | fe df |
"A" e2 c2 |B2 Ad |"D"f2 fe | d3 d | "G" ed cB | "D" A3 A | "G" Bc d2 |
"A7" cd ec |"D"de fg | a2 A2| "G"Bc d2 | "A7"cd ec | "D"d4- | d2 |]


